build/svg/cmd/32/spacepara15.svg

<?xml version="1.0" encoding="UTF-8" standalone="no"?>
<svg
   xmlns:dc="http://purl.org/dc/elements/1.1/"
   xmlns:cc="http://creativecommons.org/ns#"
   xmlns:rdf="http://www.w3.org/1999/02/22-rdf-syntax-ns#"
   xmlns:svg="http://www.w3.org/2000/svg"
   xmlns="http://www.w3.org/2000/svg"
   xmlns:sodipodi="http://sodipodi.sourceforge.net/DTD/sodipodi-0.dtd"
   xmlns:inkscape="http://www.inkscape.org/namespaces/inkscape"
   viewBox="0 0 32 32"
   version="1.1"
   id="svg6"
   sodipodi:docname="spacepara15.svg"
   inkscape:version="0.92.5 (2060ec1f9f, 2020-04-08)"
   inkscape:export-filename="/home/jupiter007/Libreoffice yaru theme fullcolor/build/cmd/32/spacepara15.png"
   inkscape:export-xdpi="95"
   inkscape:export-ydpi="95">
  <metadata
     id="metadata12">
    <rdf:RDF>
      <cc:Work
         rdf:about="">
        <dc:format>image/svg+xml</dc:format>
        <dc:type
           rdf:resource="http://purl.org/dc/dcmitype/StillImage" />
      </cc:Work>
    </rdf:RDF>
  </metadata>
  <defs
     id="defs10" />
  <sodipodi:namedview
     pagecolor="#ffffff"
     bordercolor="#666666"
     borderopacity="1"
     objecttolerance="10"
     gridtolerance="10"
     guidetolerance="10"
     inkscape:pageopacity="0"
     inkscape:pageshadow="2"
     inkscape:window-width="1920"
     inkscape:window-height="1011"
     id="namedview8"
     showgrid="true"
     inkscape:zoom="20.85965"
     inkscape:cx="5.3631679"
     inkscape:cy="17.370345"
     inkscape:window-x="0"
     inkscape:window-y="32"
     inkscape:window-maximized="1"
     inkscape:current-layer="svg6">
    <inkscape:grid
       type="xygrid"
       id="grid822" />
  </sodipodi:namedview>
  <path
     inkscape:connector-curvature="0"
     id="path829"
     d="m 26,6 -3,5 h 2 v 10 h -2 l 3,5 3,-5 H 27 V 11 h 2 z"
     style="opacity:0.6;fill:#000000;stroke:#000000;stroke-width:2;stroke-linejoin:round;stroke-miterlimit:4;stroke-dasharray:none;stroke-opacity:1"
     sodipodi:nodetypes="ccccccccccc" />
  <path
     inkscape:connector-curvature="0"
     style="fill:#ffffff"
     d="m 26,6 -3,5 h 2 v 10 h -2 l 3,5 3,-5 H 27 V 11 h 2 z"
     id="path837"
     sodipodi:nodetypes="ccccccccccc" />
  <path
     style="fill:#fa9381;fill-opacity:1;stroke-width:1.46385026"
     d="m 3.0000004,8 v 2 H 19.000001 V 8 Z"
     id="path824"
     inkscape:connector-curvature="0" />
  <path
     style="fill:#fa9381;fill-opacity:1;stroke-width:1.46385026"
     d="m 3.0000004,12 v 2 H 19.000001 v -2 z"
     id="path822"
     inkscape:connector-curvature="0" />
  <path
     inkscape:connector-curvature="0"
     id="path841"
     d="m 3.0000001,18 v 2 H 19.000001 v -2 z"
     style="fill:#fa9381;fill-opacity:1;stroke-width:1.46385026" />
  <path
     style="fill:#fa9381;fill-opacity:1;stroke-width:1.46385026"
     d="m 3.0000001,22 v 2 H 19.000001 v -2 z"
     id="path843"
     inkscape:connector-curvature="0" />
  <path
     inkscape:connector-curvature="0"
     id="path818"
     d="M 3.0000001,4 V 6 H 19.000001 V 4 Z"
     style="fill:#fa9381;fill-opacity:1;stroke-width:1.46385026" />
  <path
     inkscape:connector-curvature="0"
     id="path820"
     d="m 3.0000001,26 v 2 H 19.000001 v -2 z"
     style="fill:#fa9381;fill-opacity:1;stroke-width:1.46385026" />
</svg>

<svg xmlns="http://www.w3.org/2000/svg" viewBox="0 0 32 32"><path d="M26 6l-3 5h2v10h-2l3 5 3-5h-2V11h2z" opacity=".6" stroke="#000" stroke-width="2" stroke-linejoin="round"/><path d="M26 6l-3 5h2v10h-2l3 5 3-5h-2V11h2z" fill="#fff"/><path d="M3 8v2h16V8zM3 12v2h16v-2zM3 18v2h16v-2zM3 22v2h16v-2zM3 4v2h16V4zM3 26v2h16v-2z" fill="#fa9381"/></svg>
